assets/ai/ai-ceur-square.svg

<svg xmlns="http://www.w3.org/2000/svg" width="100%" height="100%" viewBox="-75.52 -43.52 599.04 599.04"><path d="M 48 32 C 21.5 32 0 53.5 0 80 L 0 432 C 0 458.5 21.5 480 48 480 L 400 480 C 426.5 480 448 458.5 448 432 L 448 80 C 448 53.5 426.5 32 400 32 L 48 32 z M 64 96 L 170.66797 96 L 170.66797 149.33398 L 117.33398 149.33398 L 117.33398 362.66602 L 224 362.66602 L 224 416 L 64 416 L 64 96 z M 224 96 L 330.66602 96 L 384 96 L 384 416 L 277.33203 416 L 277.33203 362.66602 L 330.66602 362.66602 L 330.66602 149.33398 L 224 149.33398 L 224 96 z"/></svg>

<svg xmlns="http://www.w3.org/2000/svg" width="100%" height="100%" viewBox="-75.52 -43.52 599.04 599.04"><path d="M48 32C21.5 32 0 53.5 0 80v352c0 26.5 21.5 48 48 48h352c26.5 0 48-21.5 48-48V80c0-26.5-21.5-48-48-48H48zm16 64h106.668v53.334h-53.334v213.332H224V416H64V96zm160 0h160v320H277.332v-53.334h53.334V149.334H224V96z"/></svg>
